public/images/pattern/5.svg

<?xml version="1.0" encoding="UTF-8" standalone="no"?>
<!-- Generator: Adobe Illustrator 12.0.0, SVG Export Plug-In . SVG Version: 6.00 Build 51448)  -->

<svg
   xmlns:dc="http://purl.org/dc/elements/1.1/"
   xmlns:cc="http://creativecommons.org/ns#"
   xmlns:rdf="http://www.w3.org/1999/02/22-rdf-syntax-ns#"
   xmlns:svg="http://www.w3.org/2000/svg"
   xmlns="http://www.w3.org/2000/svg"
   xmlns:sodipodi="http://sodipodi.sourceforge.net/DTD/sodipodi-0.dtd"
   xmlns:inkscape="http://www.inkscape.org/namespaces/inkscape"
   version="1.1"
   id="レイヤー_1"
   width="76.620178"
   height="74.999588"
   viewBox="0 0 76.620177 74.999588"
   overflow="visible"
   enable-background="new 0 0 89.275 88.207"
   xml:space="preserve"
   sodipodi:docname="Hot_springs_001.svg"
   style="overflow:visible"
   inkscape:version="0.92.1 r15371"><metadata
     id="metadata4498"><rdf:RDF><cc:Work
         rdf:about=""><dc:format>image/svg+xml</dc:format><dc:type
           rdf:resource="http://purl.org/dc/dcmitype/StillImage" /><dc:title></dc:title></cc:Work></rdf:RDF></metadata><defs
     id="defs4496" /><sodipodi:namedview
     pagecolor="#ffffff"
     bordercolor="#666666"
     borderopacity="1"
     objecttolerance="10"
     gridtolerance="10"
     guidetolerance="10"
     inkscape:pageopacity="0"
     inkscape:pageshadow="2"
     inkscape:window-width="1920"
     inkscape:window-height="1017"
     id="namedview4494"
     showgrid="false"
     fit-margin-top="0"
     fit-margin-left="0"
     fit-margin-right="0"
     fit-margin-bottom="0"
     inkscape:zoom="4"
     inkscape:cx="-1.6751968"
     inkscape:cy="23.460649"
     inkscape:window-x="-8"
     inkscape:window-y="-8"
     inkscape:window-maximized="1"
     inkscape:current-layer="レイヤー_1" /><g
     id="g4527"
     transform="matrix(0.98859564,0,0,0.98859564,-5.9726689,-6.2864797)"><path
       sodipodi:nodetypes="sssssssss"
       inkscape:connector-curvature="0"
       id="path4485"
       d="m 46.5,6.359 c 2.003944,0 -0.251228,6.139338 -0.830957,9.965472 -1.788109,11.801274 4.172581,18.264562 5.009957,27.423528 0.430624,4.710034 -0.990716,9.416582 -2.656169,13.534208 -1.230547,3.042375 -3.744297,8.109412 -5.76581,7.567749 C 40.487007,64.375683 42.501937,59.737991 42.869,57.236 43.301937,54.284991 44.344179,52.926191 44.104491,46.993004 43.738856,37.94216 38.677055,31.021558 39,21.297424 39.199719,15.283735 42.020313,6.359 46.5,6.359 Z" /><path
       sodipodi:nodetypes="ssssssssss"
       inkscape:connector-curvature="0"
       id="path4487"
       d="m 31.910013,12.865805 c -0.582762,4.815446 -2.3864,6.675489 -2.298974,12.04361 C 29.725043,31.909516 36.26192,38.967626 35.532,47.77 35.308281,50.467903 34.710235,53.420349 33.198581,56.613498 31.3602,60.49681 29.159692,62.11821 27.752872,61.741253 26.181206,61.320126 27.631344,58.351236 28.743251,54.708251 29.617033,51.845447 30.040298,46.688173 29.142,43.039 28.323298,39.713173 26.135435,37.048191 25.119,34.047 22.438435,26.132191 24.780056,18.826175 29.142,12.749 c 1.203788,-1.677149 2.935987,-1.27119 2.768013,0.116805 z" /><path
       sodipodi:nodetypes="sssssssss"
       inkscape:connector-curvature="0"
       id="path4489"
       d="M 61.335283,12.552728 C 62.015351,16.453244 59.671445,19.852005 59.623,24.343 59.52344,33.572005 65.702318,41.155471 65.020585,48.681197 64.621277,53.089196 60.688578,62.753317 58.251,61.971 c -2.242423,-0.719684 -0.06577,-6.099137 0.236,-7.81 0.575225,-3.261137 1.312055,-5.736119 0.71,-9.229 -1.196858,-6.943689 -5.242079,-11.304053 -4.82,-19.877 0.226921,-4.609053 2.589767,-9.578042 4.615904,-12.223315 0.600179,-0.783579 2.141524,-1.430959 2.342379,-0.278957 z" /></g><path
     style="color:#000000;font-style:normal;font-variant:normal;font-weight:normal;font-stretch:normal;font-size:medium;line-height:normal;font-family:sans-serif;font-variant-ligatures:normal;font-variant-position:normal;font-variant-caps:normal;font-variant-numeric:normal;font-variant-alternates:normal;font-feature-settings:normal;text-indent:0;text-align:start;text-decoration:none;text-decoration-line:none;text-decoration-style:solid;text-decoration-color:#000000;letter-spacing:normal;word-spacing:normal;text-transform:none;writing-mode:lr-tb;direction:ltr;text-orientation:mixed;dominant-baseline:auto;baseline-shift:baseline;text-anchor:start;white-space:normal;shape-padding:0;clip-rule:nonzero;display:inline;overflow:visible;visibility:visible;opacity:1;isolation:auto;mix-blend-mode:normal;color-interpolation:sRGB;color-interpolation-filters:linearRGB;solid-color:#000000;solid-opacity:1;vector-effect:none;fill:#000000;fill-opacity:1;fill-rule:nonzero;stroke:none;stroke-width:5.5496254;stroke-linecap:round;stroke-linejoin:round;stroke-miterlimit:4;stroke-dasharray:none;stroke-dashoffset:0;stroke-opacity:1;color-rendering:auto;image-rendering:auto;shape-rendering:auto;text-rendering:auto;enable-background:accumulate"
     d="M 11.741504,38.50644 C 11.201939,38.42581 10.195399,38.721628 8.3316211,39.709363 1.3848126,43.397378 0,50.494091 0,53.358547 c 0,6.621821 4.9356468,12.102477 11.882456,15.790492 4.730771,2.511547 10.540584,4.314034 16.989557,5.209434 0.0057,8.01e-4 0.01166,0.0012 0.01738,0.002 0.711662,0.09861 1.430095,0.18638 2.156761,0.26259 0.154829,0.01628 0.31179,0.02724 0.467266,0.04248 0.574478,0.05619 1.152861,0.106739 1.735834,0.148675 0.188052,0.01358 0.376844,0.02461 0.56574,0.03669 0.53481,0.03406 1.072905,0.06307 1.614191,0.08496 0.229048,0.0093 0.457223,0.01993 0.687383,0.02703 0.726241,0.02227 1.456897,0.03669 2.193447,0.03669 0.654565,0 1.30562,-0.0094 1.95209,-0.02703 0.0013,-4e-5 0.0026,2.9e-5 0.0039,0 0.637042,-0.01739 1.269549,-0.04308 1.898026,-0.07724 0.0084,-4.55e-4 0.01668,-0.0015 0.0251,-0.0019 0.08628,-0.0047 0.170699,-0.01232 0.256804,-0.01738 0.550121,-0.03215 1.098276,-0.06913 1.641223,-0.113916 0.628351,-0.05183 1.251002,-0.113056 1.869063,-0.181506 0.618583,-0.0685 1.230625,-0.144958 1.83817,-0.22977 0.606356,-0.08464 1.20685,-0.177492 1.801484,-0.278042 6.28e-4,-9.9e-5 0.0013,1.09e-4 0.002,0 0.0033,-5.54e-4 0.0064,-0.0014 0.0097,-0.0019 0.592083,-0.100234 1.177341,-0.208713 1.757074,-0.324388 0.582838,-0.116289 1.158484,-0.241089 1.728112,-0.372651 4.324806,-0.998858 8.262264,-2.428841 11.644962,-4.224705 6.946809,-3.688015 11.882456,-9.16867 11.882456,-15.790492 0,-2.864456 -1.386743,-9.961168 -8.333552,-13.649184 -1.863778,-0.987734 -2.868388,-1.283557 -3.407952,-1.202923 -0.539565,0.08063 -0.614011,0.537589 -0.614011,1.052311 0,1.233797 1.737584,3.230671 3.434984,4.885056 2.269286,2.211775 3.371265,5.117633 3.371265,8.91474 0,3.797117 -3.019845,7.750175 -8.934046,10.889994 -2.56639,1.362483 -5.640894,2.504785 -9.044106,3.380918 -0.0051,0.0013 -0.01031,0.0026 -0.01545,0.0039 -0.99917,0.256985 -2.031172,0.485776 -3.0855,0.693173 -0.177109,0.03454 -0.352388,0.07123 -0.530983,0.104268 -0.521111,0.09737 -1.046358,0.191728 -1.579436,0.276114 -0.0039,6.13e-4 -0.0077,0.0013 -0.01159,0.0019 -0.706795,0.110258 -1.424568,0.209097 -2.150968,0.295422 -0.356445,0.04308 -0.716536,0.08071 -1.077415,0.117781 -0.864215,0.08714 -1.7349,0.164601 -2.622096,0.216255 -0.198833,0.01183 -0.400558,0.01706 -0.600494,0.02703 -1.024589,0.04991 -2.058981,0.08496 -3.10867,0.08496 -1.009912,0 -2.00413,-0.03486 -2.990888,-0.08109 -0.412581,-0.02018 -0.82205,-0.04527 -1.229952,-0.07337 -0.488292,-0.03247 -0.96878,-0.07637 -1.450069,-0.119709 C 31.359339,69.05784 30.097954,68.91306 28.87216,68.724396 23.290926,67.865526 18.334076,66.292937 14.483381,64.24862 8.5691796,61.108801 5.5493343,57.155743 5.5493343,53.358626 c 0,-3.797107 1.1019807,-6.702965 3.3712654,-8.91474 1.6974003,-1.654385 3.4330533,-3.65126 3.4330533,-4.885057 0,-0.514722 -0.07251,-0.971676 -0.61208,-1.05231 z"
     id="path4505"
     inkscape:connector-curvature="0" /></svg>

<svg width="77" height="75" viewBox="0 0 77 75" fill="none" xmlns="http://www.w3.org/2000/svg">
<g clip-path="url(#clip0_2234_57674)">
<path d="M39.9968 0C41.9779 0 39.7485 6.06932 39.1754 9.85182C37.4076 21.5185 43.3004 27.9081 44.1282 36.9626C44.5539 41.6189 43.1488 46.2718 41.5023 50.3425C40.2858 53.3501 37.8007 58.3594 35.8023 57.8239C34.0524 57.355 36.0444 52.7702 36.4072 50.2968C36.8352 47.3794 37.8656 46.0361 37.6287 40.1706C37.2672 31.223 32.2631 24.3813 32.5824 14.7681C32.7798 8.82295 35.5682 0 39.9968 0Z" fill="black"/>
<path d="M25.5732 6.4326C24.9971 11.1931 23.2141 13.032 23.3005 18.3389C23.4132 25.2591 29.8755 32.2367 29.1539 40.9387C28.9328 43.6059 28.3415 46.5246 26.8471 49.6814C25.0297 53.5204 22.8543 55.1233 21.4635 54.7507C19.9098 54.3343 21.3434 51.3993 22.4426 47.7979C23.3064 44.9677 23.7248 39.8692 22.8368 36.2617C22.0274 32.9738 19.8645 30.3392 18.8597 27.3722C16.2097 19.5477 18.5246 12.325 22.8368 6.31713C24.0269 4.6591 25.7393 5.06043 25.5732 6.4326Z" fill="black"/>
<path d="M54.6629 6.12309C55.3352 9.97913 53.0181 13.3391 52.9702 17.7789C52.8718 26.9027 58.9802 34.3996 58.3062 41.8395C57.9115 46.1973 54.0236 55.7512 51.6138 54.9778C49.397 54.2663 51.5488 48.9482 51.8471 47.2568C52.4158 44.0329 53.1442 41.5861 52.549 38.1331C51.3658 31.2686 47.3667 26.958 47.784 18.4828C48.0083 13.9263 50.3442 9.01397 52.3473 6.39887C52.9406 5.62423 54.4644 4.98423 54.6629 6.12309Z" fill="black"/>
<path d="M11.7415 38.5048C11.2019 38.4241 10.1954 38.72 8.33162 39.7077C1.38481 43.3957 0 50.4924 0 53.3569C0 59.9787 4.93565 65.4594 11.8825 69.1474C16.6132 71.6589 22.423 73.4614 28.872 74.3568C28.8777 74.3576 28.8837 74.358 28.8894 74.3588C29.6011 74.4574 30.3195 74.5452 31.0462 74.6214C31.201 74.6377 31.3579 74.6486 31.5134 74.6639C32.0879 74.7201 32.6663 74.7706 33.2493 74.8126C33.4373 74.8261 33.6261 74.8372 33.815 74.8492C34.3498 74.8833 34.8879 74.9123 35.4292 74.9342C35.6582 74.9435 35.8864 74.9541 36.1166 74.9612C36.8428 74.9835 37.5735 74.9979 38.31 74.9979C38.9646 74.9979 39.6156 74.9885 40.2621 74.9709C40.2634 74.9709 40.2647 74.9709 40.266 74.9709C40.903 74.9535 41.5356 74.9278 42.164 74.8937C42.1724 74.8932 42.1807 74.8922 42.1891 74.8918C42.2754 74.8871 42.3598 74.8794 42.4459 74.8744C42.9961 74.8422 43.5442 74.8052 44.0872 74.7605C44.7155 74.7086 45.3382 74.6474 45.9562 74.579C46.5748 74.5105 47.1868 74.434 47.7944 74.3492C48.4007 74.2645 49.0012 74.1717 49.5959 74.0711C49.5965 74.071 49.5972 74.0713 49.5979 74.0711C49.6012 74.0706 49.6043 74.0697 49.6076 74.0692C50.1997 73.969 50.7849 73.8605 51.3647 73.7449C51.9475 73.6286 52.5231 73.5038 53.0928 73.3722C57.4176 72.3733 61.355 70.9434 64.7377 69.1475C71.6845 65.4595 76.6202 59.9788 76.6202 53.357C76.6202 50.4926 75.2334 43.3958 68.2866 39.7078C66.4229 38.7201 65.4182 38.4243 64.8787 38.5049C64.3391 38.5855 64.2647 39.0425 64.2647 39.5572C64.2647 40.791 66.0022 42.7879 67.6996 44.4423C69.9689 46.654 71.0709 49.5599 71.0709 53.357C71.0709 57.1541 68.0511 61.1072 62.1369 64.247C59.5705 65.6095 56.496 66.7518 53.0928 67.6279C53.0877 67.6292 53.0825 67.6305 53.0773 67.6318C52.0781 67.8888 51.0461 68.1176 49.9918 68.325C49.8147 68.3595 49.6394 68.3962 49.4608 68.4293C48.9397 68.5266 48.4145 68.621 47.8814 68.7054C47.8775 68.706 47.8737 68.7067 47.8698 68.7073C47.163 68.8175 46.4452 68.9164 45.7188 69.0027C45.3624 69.0458 45.0023 69.0834 44.6414 69.1205C43.7772 69.2076 42.9065 69.2851 42.0193 69.3367C41.8205 69.3486 41.6188 69.3538 41.4188 69.3638C40.3942 69.4137 39.3598 69.4487 38.3102 69.4487C37.3002 69.4487 36.306 69.4139 35.3193 69.3676C34.9067 69.3475 34.4972 69.3224 34.0893 69.2943C33.601 69.2618 33.1205 69.2179 32.6393 69.1746C31.3593 69.0562 30.098 68.9114 28.8722 68.7227C23.2909 67.8639 18.3341 66.2913 14.4834 64.247C8.56918 61.1071 5.54933 57.1541 5.54933 53.357C5.54933 49.5599 6.65132 46.654 8.9206 44.4422C10.618 42.7878 12.3537 40.791 12.3537 39.5572C12.3537 39.0424 12.2811 38.5854 11.7415 38.5048Z" fill="black"/>
</g>
</svg>
